!!!COM: Music21
!!!OTL: Alghún día
!!!OMV: pezas_jotas_alghun-dia_alghun-dia-partitura.musicxml
**kern
*I"Gaita
*I'Bag
*clefG^2
*k[]
*M3/8
*MM123
=1
!LO:TX:a:t=[quarter-dot]=82
8r
16eeLL
16gg
16ccc
16dddJJ
=||
16bbLL
16aa
16aa
16gg
16gg
16ffJJ
=
16eeLL
16cc
16ee
16gg
16ccc
16dddJJ
=
16bbLL
16aa
16aa
16gg
16gg
16eeJJ
=
8ffL
16ffL
16gg
16aa
16bbJJ
=
16bbLL
16ccc
16ddd
16ccc
16bb
16aaJJ
=
16ggLL
16ee
16aa
16bb
16aa
16ggJJ
!!linebreak:original
=
16ffLL
16dd
16ee
16ff
16gg
16aaJJ
=
8ggL
16eeL
16gg
16ccc
16dddJJ
=
16bbLL
16aa
16aa
16gg
16gg
16ffJJ
=
16eeLL
16cc
16ee
16gg
16ccc
16dddJJ
=
16bbLL
16aa
16aa
16gg#X
16aa
16bb-XJJ
=
8aaL
16ffL
16gg
16aa
16bbJJ
=
16cccLL
16ddd
16ccc
16bb
16aa
16bbJJ
!!linebreak:original
=
16ggLL
16ee
16aa
16gg
16gg
16ffJJ
=
16ffLL
16dd
16gg
16ee
16ee
16ddJJ
=
[4.cc
=
8ccL]
16eeL
16gg
16ccc
16dddJJ
=||
16bbLL
16aa
16aa
16gg
16gg
16ffJJ
=
16eeLL
16cc
16ee
16gg
16ccc
16dddJJ
=
16bbLL
16aa
16aa
16gg
16gg
16eeJJ
=
8ffL
16ffL
16gg
16aa
16bbJJ
!!linebreak:original
=
16bbLL
16ccc
16ddd
16ccc
16bb
16aaJJ
=
16ggLL
16ee
16aa
16bb
16aa
16ggJJ
!!linebreak:original
=
16ffLL
16dd
16ee
16ff
16gg
16aaJJ
=
8ggL
16eeL
16gg
16ccc
16dddJJ
=
16bbLL
16aa
16aa
16gg
16gg
16ffJJ
=
16eeLL
16cc
16ee
16gg
16ccc
16dddJJ
=
16bbLL
16aa
16aa
16gg#X
16aa
16bb-XJJ
=
8aaL
24ddL
24ee
24ff
24gg
24aa
24bbJJ
=
8cccL
16dddL
16ccc
16bb
16aaJJ
!!linebreak:original
=
16aaLL
16gg
16gg
16ff
16ff
16eeJJ
=
16eeLL
16dd
16dd
16cc
16b
16ddJJ
!!linebreak:original
=
[4.cc
=
8ccL]
8gg
16ffL
16ggJJ
=||
*M2/8
8eeL
16ccL
16eeJJ
=||
*M3/8
8ggL
16ccL
16ee
16gg
16eeJJ
=
16ffLL
16gg
16ff
16ee
16ff
16eeJJ
=
8ddL
8gg
16ffL
16ggJJ
=
*M2/8
8ddL
16bL
16ddJJ
=||
*M3/8
8ggL
16bL
16dd
16ff
16ddJJ
=
16eeLL
16dd
16ee
16ff
16gg
16aaJJ
!!linebreak:original
=
16aaLL
16gg
16gg
16gg-X
16ggn
16aaJJ
=||
*M2/8
8ggL
16ccL
16eeJJ
=||
*M3/8
8ggL
16ccL
16ee
16gg
16eeJJ
=
16ffLL
16ee
16dd
16ee
16ff
16ggJJ
=||
8aa-XL
16ffL
16gg
16aa-
16ffJJ
=
16ggLL
16ee-X
16cc
16ee-
16gg
16ee-JJ
=
16ffLL
16ee-X
16dd
16ff
16ff
16ddJJ
!!linebreak:original
=
8ee-XL
16ee-L
16ddJ
[8ccJ
=
8ccL]
16ffL
16gg
16aa-X
16ffJJ
=
16ggLL
16ee-X
16cc
16ee-
16gg
16ee-JJ
=
16ffLL
16ee-X
16dd
16ff
16ee-
16ddJJ
=
[4.cc
=
8ccL]
8gg
16ffL
16ggJJ
=||
*M2/8
8eeL
16ccL
16eeJJ
=||
*M3/8
8ggL
16ccL
16ee
16gg
16eeJJ
!!linebreak:original
=
16ffLL
16gg
16ff
16ee
16ff
16eeJJ
=
8ddL
8gg
16ffL
16ggJJ
=
*M2/8
8ddL
16bL
16ddJJ
=||
*M3/8
8ggL
16bL
16dd
16ff
16ddJJ
=
16eeLL
16dd
16ee
16ff
16gg
16aaJJ
!!linebreak:original
=
16aaLL
16gg
16gg
16gg-X
16ggn
16aaJJ
=||
*M2/8
8ggL
16ccL
16eeJJ
=||
*M3/8
8ggL
16ccL
16ee
16gg
16eeJJ
=
16ffLL
16ee
16dd
16ee
16ff
16ggJJ
=||
8aa-XL
16ffL
16gg
16aa-
16ffJJ
=
16ggLL
16ee-X
16cc
16ee-
16gg
16ee-JJ
=
16ffLL
16ee-X
16dd
16ff
16ff
16ddJJ
!!linebreak:original
=
8ee-XL
16ee-L
16ddJ
[8ccJ
=
8ccL]
16ffL
16gg
16aa-X
16ffJJ
=
16ggLL
16ee-X
16cc
16ee-
16gg
16ee-JJ
=
16ffLL
16ee-X
16dd
16ff
16ee-
16ddJJ
=
[4.cc
=||
*k[b-e-a-]
8ccL]
8gg
8aa-J
!!pagebreak:original
=||
8ggL
24ffL
24gg
24ff
24ee-
24ff
24ee-JJ
=
8ddL
8ee-
8ffJ
=
8ee-L
8dd
[8ccJ
=
8ccL]
8gg
8aa-J
=
8ggL
24ffL
24gg
24ff
24ee-
24ff
24ee-JJ
=
8ddL
8ee-
8ffJ
=
8aa-
[4gg
=
8ggL]
8ff
8ggJ
=
8aa-L
16ggL
16aa-
16gg
16ffJJ
!!linebreak:original
=
16ffLL
16ee-
16dd
16ee-
16ff
16ggJJ
=
16aa-LL
16ff
16gg
16ff
16ff
16ee-JJ
=
8ddL
16ddL
16ee-
16ff
16ggJJ
=
24aa-LL
24gg
24ff
16ee-
16gg
16ff
16ee-JJ
=
16ddLL
16gg
24ee-
24dd
24cc
16bn
16ddJJ
=
[4.cc
=
8ccL]
8gg
8aa-J
!!linebreak:original
=||
8ggL
24ffL
24gg
24ff
24ee-
24ff
24ee-JJ
=
8ddL
8ee-
8ffJ
=
8ee-L
8dd
[8ccJ
=
8ccL]
8gg
8aa-J
=
8ggL
24ffL
24gg
24ff
24ee-
24ff
24ee-JJ
=
8ddL
8ee-
8ffJ
=
8aa-
[4gg
=
8ggL]
8ff
8ggJ
=
8aa-L
16ggL
16aa-
16gg
16ffJJ
!!linebreak:original
=
16ffLL
16ee-
16dd
16ee-
16ff
16ggJJ
=
16aa-LL
16ff
16gg
16ff
16ff
16ee-JJ
=
8ddL
16ddL
16ee-
16ff
16ggJJ
=
16aa-LL
16gg
16gg
16ff
16ff
16ee-JJ
!!linebreak:original
=
16ee-LL
16cc
16dd
16cc
16bn
16ddJJ
=
[4.cc
=||
*k[]
8ccL]
16eeL
16gg
16ccc
16dddJJ
=||
[4.aa-X
=
4.aa-_
=
8aa-L]
24ddL
24ee
24ff
24gg
24aan
24bbJJ
=
8cccL
16dddL
16ccc
16bb
16aaJJ
=
16aaLL
16gg
16gg
16ff
16ff
16eeJJ
!!linebreak:original
=
16eeLL
16dd
16dd
16cc
16b
16ddJJ
=
8ccL
24ddL
24ee
24ff
24gg
24aa
24bbJJ
=
16ccc
16r
4r
==
*-
